icon/fa/vector-square.svg

<svg xmlns="http://www.w3.org/2000/svg" viewBox="0 0 448 512"><!--! Font Awesome Free 6.1.2 by @fontawesome - https://fontawesome.com License - https://fontawesome.com/license/free (Icons: CC BY 4.0, Fonts: SIL OFL 1.1, Code: MIT License) Copyright 2022 Fonticons, Inc.--><path d="M416 32c17.7 0 32 14.33 32 32v64c0 17.7-14.3 32-32 32v192c17.7 0 32 14.3 32 32v64c0 17.7-14.3 32-32 32h-64c-17.7 0-32-14.3-32-32H128c0 17.7-14.3 32-32 32H32c-17.67 0-32-14.3-32-32v-64c0-17.7 14.33-32 32-32V160c-17.67 0-32-14.3-32-32V64c0-17.67 14.33-32 32-32h64c17.7 0 32 14.33 32 32h192c0-17.67 14.3-32 32-32h64zm-48 48v32h32V80h-32zM96 160v192c17.7 0 32 14.3 32 32h192c0-17.7 14.3-32 32-32V160c-17.7 0-32-14.3-32-32H128c0 17.7-14.3 32-32 32zM48 400v32h32v-32H48zm352 32v-32h-32v32h32zM80 112V80H48v32h32z"/></svg>

<svg xmlns="http://www.w3.org/2000/svg" viewBox="0 0 448 512" height="1em" width="1em">
<!--! Font Awesome Free 6.1.2 by @fontawesome - https://fontawesome.com License - https://fontawesome.com/license/free (Icons: CC BY 4.0, Fonts: SIL OFL 1.1, Code: MIT License) Copyright 2022 Fonticons, Inc.-->
  <path d="M416 32C433.7 32 448 46.33 448 64V128C448 145.7 433.7 160 416 160V352C433.7 352 448 366.3 448 384V448C448 465.7 433.7 480 416 480H352C334.3 480 320 465.7 320 448H128C128 465.7 113.7 480 96 480H32C14.33 480 0 465.7 0 448V384C0 366.3 14.33 352 32 352V160C14.33 160 0 145.7 0 128V64C0 46.33 14.33 32 32 32H96C113.7 32 128 46.33 128 64H320C320 46.33 334.3 32 352 32H416zM368 80V112H400V80H368zM96 160V352C113.7 352 128 366.3 128 384H320C320 366.3 334.3 352 352 352V160C334.3 160 320 145.7 320 128H128C128 145.7 113.7 160 96 160zM48 400V432H80V400H48zM400 432V400H368V432H400zM80 112V80H48V112H80z"/>
</svg>
